X:57
T:Hark! The Herald Angels Sing
%%stretchlast false
M:4/4
L:1/4
K:Eb clef=C1
"^I"[E,G,B,] [E,G,B,E] [E,G,B,E] "^I²"[B,,G,B,E]/ "^V"[B,,F,B,D]/ | "^I¹"[G,,E,B,E] "^I"[E,,B,EG] "^I²"[B,,B,EG] "^V"[B,,B,DF] | "^I¹"[G,,B,EB] "^iii"[G,,B,DB] "^vi+²"[A,,CB] "^ii¹"[A,,CFB]/ [A,,CFA]/ | "^I²"[B,,B,EG] "^V"[B,,B,DF] "^I"[E,B,EG]2 | [E,G,B,] [E,G,B,E] [E,G,B,E] "^I²"[B,,G,B,E]/ "^V"[B,,F,B,D]/ | "^vi"[C,E,G,E] "^I²"[B,,B,EG] "^♭vø7"[=A,,CEG] "^II7¹"[=A,,CEF]/ "^ii7"[F,,CEF]/ | "^iii"[G,,B,DB] "^V/V¹"[=A,,CF] "^V"[B,,B,DF] "^V¹"[D,B,DF]/ [D,F,B,D]/ | "^Imaj7"[E,G,B,D] "^II7"[F,,E,=A,C] "^V"[B,,D,B,]2 | "^v"[B,B] [B,B] [B,B] "^I¹"[G,B,E] | "^V7¹"[D,B,FA] "^I"[E,B,EG] "^I²"[B,,B,EG] "^V"[B,,B,DF] | "^v"[B,B] [B,B] [B,B] "^I¹"[G,B,E] | "^V7¹"[D,B,FA] "^I"[E,B,EG] "^I²"[B,,B,EG] "^V"[B,,B,DF] | "^vi+"[A,,CAc] [A,,CAc] [A,,CAc] "^vi+²"[A,,CGB] | "^ii¹"[A,,CFA] "^V/ii"[C,C=EG] "^ii"[F,CFA]2 | "^V7³"[A,B,DF] "^♯iii°"[A,B,DG]/ [A,B,DA]/ "^I¹"[G,B,EB] "^i"[E,B,EB]/ "^I"[E,G,B,E]/ | "^I²"[B,,G,B,E] "^V"[B,,B,DF] "^I"[E,B,EG]2 | "^vi+"[A,CAc] [A,CAc]/ [A,CAc]/ [A,CAc] "^iii"[G,B,GB] | "^♯iii"[F,A,FA] "^♯i"[=E,G,=EG] "^♯iii"[F,A,FA] [E,A,FA] | "^V¹"[D,B,F] "^♯iii°"[A,B,DG]/ [A,B,DA]/ "^I¹"[G,B,EB] "^i"[E,B,EB]/ "^I"[E,G,E]/ | "^I²"[B,,G,B,E] "^♯iii"[B,,A,B,F] "^I"[E,G,B,E]2 |]
